assets/icons/messages.svg

<svg xmlns="http://www.w3.org/2000/svg" class="icon" viewBox="0 0 512 512">
  <path
    d="M38.4 107.6Q40 90 57.6 88.4h217.6q17.6 1.6 19.2 19.2v140.8q-1.6 17.6-19.2 19.2H172.8q-5.6 0-10.4 3.2L115.2 302v-15.2q-1.6-17.6-19.2-19.2H57.6Q40 266 38.4 248.4zM57.6 50q-24.8.8-40.8 16.8T0 107.6v140.8q.8 24.8 16.8 40.8T57.6 306h19.2v32q.8 11.2 10.4 16.8 9.6 4.8 19.2-.8l72-48h96.8q24.8-.8 40.8-16.8t16.8-40.8V107.6Q332 82.8 316 66.8T275.2 50zm147.2 300.8q.8 24.8 16.8 40.8t40.8 16.8h71.2l72 48q9.6 5.6 19.2.8 9.6-5.6 10.4-16.8v-32h19.2q24.8-.8 40.8-16.8t16.8-40.8V210q-.8-24.8-16.8-40.8t-40.8-16.8h-96v38.4h96q17.6 1.6 19.2 19.2v140.8q-1.6 17.6-19.2 19.2H416q-17.6 1.6-19.2 19.2v15.2l-47.2-31.2q-4.8-3.2-10.4-3.2h-76.8q-17.6-1.6-19.2-19.2v-19.2h-38.4z" />
</svg>

<svg xmlns="http://www.w3.org/2000/svg" class="icon" viewBox="0 0 512 512">
  <path
    d="M 38.4 107.6 Q 40 90 57.6 88.4 L 275.2 88.4 L 275.2 88.4 Q 292.8 90 294.4 107.6 L 294.4 248.4 L 294.4 248.4 Q 292.8 266 275.2 267.6 L 172.8 267.6 L 172.8 267.6 Q 167.2 267.6 162.4 270.8 L 115.2 302 L 115.2 302 L 115.2 286.8 L 115.2 286.8 Q 113.6 269.2 96 267.6 L 57.6 267.6 L 57.6 267.6 Q 40 266 38.4 248.4 L 38.4 107.6 L 38.4 107.6 Z M 57.6 50 Q 32.8 50.8 16.8 66.8 L 16.8 66.8 L 16.8 66.8 Q 0.8 82.8 0 107.6 L 0 248.4 L 0 248.4 Q 0.8 273.2 16.8 289.2 Q 32.8 305.2 57.6 306 L 76.8 306 L 76.8 306 L 76.8 338 L 76.8 338 Q 77.6 349.2 87.2 354.8 Q 96.8 359.6 106.4 354 L 178.4 306 L 178.4 306 L 275.2 306 L 275.2 306 Q 300 305.2 316 289.2 Q 332 273.2 332.8 248.4 L 332.8 107.6 L 332.8 107.6 Q 332 82.8 316 66.8 Q 300 50.8 275.2 50 L 57.6 50 L 57.6 50 Z M 204.8 350.8 Q 205.6 375.6 221.6 391.6 L 221.6 391.6 L 221.6 391.6 Q 237.6 407.6 262.4 408.4 L 333.6 408.4 L 333.6 408.4 L 405.6 456.4 L 405.6 456.4 Q 415.2 462 424.8 457.2 Q 434.4 451.6 435.2 440.4 L 435.2 408.4 L 435.2 408.4 L 454.4 408.4 L 454.4 408.4 Q 479.2 407.6 495.2 391.6 Q 511.2 375.6 512 350.8 L 512 210 L 512 210 Q 511.2 185.2 495.2 169.2 Q 479.2 153.2 454.4 152.4 L 358.4 152.4 L 358.4 152.4 L 358.4 190.8 L 358.4 190.8 L 454.4 190.8 L 454.4 190.8 Q 472 192.4 473.6 210 L 473.6 350.8 L 473.6 350.8 Q 472 368.4 454.4 370 L 416 370 L 416 370 Q 398.4 371.6 396.8 389.2 L 396.8 404.4 L 396.8 404.4 L 349.6 373.2 L 349.6 373.2 Q 344.8 370 339.2 370 L 262.4 370 L 262.4 370 Q 244.8 368.4 243.2 350.8 L 243.2 331.6 L 243.2 331.6 L 204.8 331.6 L 204.8 331.6 L 204.8 350.8 L 204.8 350.8 Z"
  />
</svg>
